apps/www/public/images/logos/publicity/fixed-width/gopuff.svg

<svg width="180" height="60" viewBox="0 0 180 60" fill="none" xmlns="http://www.w3.org/2000/svg">
<g clip-path="url(#clip0_2080_14298)">
<path d="M104.479 23.9426V30.9639C104.479 32.7812 103.882 33.8625 102.481 33.8625C101.086 33.8625 100.483 32.7812 100.483 30.9639V23.9426H96.507V31.231C96.507 35.0478 98.8939 36.6241 102.474 36.6241C105.431 36.6241 108.441 35.0478 108.441 31.231V23.9426C108.448 23.9426 104.479 23.9426 104.479 23.9426ZM74.2138 23.6625C70.1105 23.6625 67.3883 26.2353 67.3883 30.2345C67.3883 34.2468 70.2714 36.6241 73.9792 36.6241C77.3985 36.6241 80.7174 34.5528 80.7174 30.0195C80.7174 26.2809 78.1226 23.6625 74.2138 23.6625ZM74.0932 33.8819C72.3968 33.8819 71.4849 32.2797 71.4849 30.1498C71.4849 28.3065 72.2091 26.4176 74.1065 26.4176C75.9034 26.4176 76.6275 28.3065 76.6275 30.1368C76.6342 32.3774 75.6486 33.8819 74.0932 33.8819ZM64.559 23.0698C63.2247 23.9556 62.8761 25.3104 62.8761 25.3104C62.152 24.4246 60.6568 23.7211 58.9069 23.7211C55.9836 23.7211 52.9263 26.2548 52.9263 30.254C52.9263 33.8038 55.5076 36.5329 58.9069 36.5329C60.3149 36.5329 61.267 36.1942 62.0246 35.4647V35.7317C62.0246 37.9854 60.5898 38.995 58.7058 38.995C56.862 38.995 55.5612 38.4023 54.75 37.9529L53.9655 40.8839C55.0248 41.418 57.1234 41.939 58.8063 41.939C60.6904 41.939 62.5878 41.5873 63.9757 40.4214C65.4239 39.1839 65.9201 37.2234 65.9201 34.846V29.3552C65.9468 27.4533 66.6442 26.118 67.5023 25.1736C67.5023 25.1671 64.559 23.0698 64.559 23.0698ZM59.6377 33.921C57.9414 33.921 57.0296 32.3188 57.0296 30.1889C57.0296 28.3456 57.7537 26.4567 59.6511 26.4567C61.4346 26.4697 62.1587 28.3456 62.1587 30.1759C62.1587 32.4165 61.1865 33.921 59.6377 33.921ZM88.6155 23.6625C84.3581 23.6625 82.0383 26.4046 82.0383 30.4625V41.6654H86.0074V35.5299C86.7181 36.2464 87.8512 36.6436 89.3664 36.6436C92.2093 36.6436 95.1795 34.5202 95.1795 30C95.1795 26.0268 92.4842 23.6625 88.6155 23.6625ZM88.6021 33.8819C86.9059 33.8819 85.994 32.2797 85.994 30.1498C85.994 28.3065 86.7181 26.4176 88.6155 26.4176C90.4124 26.4176 91.1366 28.3065 91.1366 30.1368C91.1164 32.3774 90.1509 33.8819 88.6021 33.8819ZM127.06 21.2981V18.341C126.511 18.1847 125.827 18.074 124.962 18.074C123.802 18.074 122.427 18.3997 121.428 19.3115C120.295 20.3407 119.819 21.9885 119.819 23.4606V23.923H115.716V23.2977C115.656 20.3016 118.673 21.1744 119.021 21.2851V18.328C118.465 18.1717 117.781 18.061 116.916 18.061C115.756 18.061 114.382 18.3866 113.383 19.2985C112.25 20.3276 111.774 21.969 111.774 23.4475V23.91H110.077V26.7563H111.774V36.344C111.774 38.9754 109.89 38.5976 109.052 38.4674L108.629 41.3138C109.032 41.47 109.675 41.6263 110.325 41.6263C112.122 41.6394 113.396 41.1053 114.254 40.2912C115.327 39.262 115.736 37.7835 115.736 36.318L115.763 26.7629H119.833V36.3506C119.893 39.1252 117.66 38.5585 117.111 38.4739L116.688 41.3202C117.091 41.4765 117.734 41.6329 118.385 41.6329C120.181 41.646 121.455 41.1118 122.313 40.2976C123.386 39.2686 123.789 37.79 123.789 36.3245L123.815 26.7694H127.074V23.9426H123.768V23.3108C123.809 20.282 126.712 21.2004 127.06 21.2981Z" fill="#7E7E7E"/>
</g>
<defs>
<clipPath id="clip0_2080_14298">
<rect width="74.1476" height="23.878" fill="white" transform="translate(52.9263 18.061)"/>
</clipPath>
</defs>
</svg>

<svg xmlns="http://www.w3.org/2000/svg" width="180" height="60" fill="none" viewBox="0 0 180 60"><g clip-path="url(#a)"><path fill="#7e7e7e" d="M104.479 23.943v7.02c0 1.818-.597 2.9-1.998 2.9-1.395 0-1.998-1.082-1.998-2.9v-7.02h-3.976v7.288c0 3.817 2.387 5.393 5.967 5.393 2.957 0 5.967-1.576 5.967-5.393v-7.288zm-30.265-.28c-4.103 0-6.826 2.572-6.826 6.572 0 4.012 2.883 6.39 6.591 6.39 3.42 0 6.738-2.072 6.738-6.605 0-3.74-2.594-6.357-6.503-6.357m-.12 10.219c-1.697 0-2.61-1.602-2.61-3.732 0-1.843.725-3.732 2.623-3.732 1.796 0 2.52 1.889 2.52 3.719.007 2.24-.978 3.745-2.534 3.745M64.558 23.07c-1.334.886-1.683 2.24-1.683 2.24-.724-.885-2.22-1.589-3.97-1.589-2.922 0-5.98 2.534-5.98 6.533 0 3.55 2.582 6.279 5.98 6.279 1.409 0 2.361-.339 3.119-1.068v.267c0 2.253-1.435 3.263-3.32 3.263-1.843 0-3.144-.593-3.955-1.042l-.785 2.93c1.06.535 3.158 1.056 4.841 1.056 1.884 0 3.782-.352 5.17-1.518 1.448-1.237 1.944-3.198 1.944-5.575v-5.49c.027-1.903.724-3.238 1.582-4.182 0-.007-2.943-2.104-2.943-2.104M59.638 33.92c-1.697 0-2.608-1.602-2.608-3.732 0-1.843.724-3.732 2.621-3.732 1.784.013 2.508 1.889 2.508 3.719 0 2.24-.972 3.745-2.521 3.745m28.978-10.258c-4.258 0-6.578 2.742-6.578 6.8v11.202h3.97V35.53c.71.716 1.843 1.114 3.358 1.114 2.843 0 5.814-2.124 5.814-6.644 0-3.973-2.696-6.337-6.565-6.337m-.014 10.219c-1.696 0-2.608-1.602-2.608-3.732 0-1.843.724-3.732 2.621-3.732 1.797 0 2.522 1.889 2.522 3.719-.02 2.24-.986 3.745-2.535 3.745m38.458-12.584v-2.957c-.549-.156-1.233-.267-2.098-.267-1.16 0-2.535.326-3.534 1.237-1.133 1.03-1.609 2.677-1.609 4.15v.462h-4.103v-.625c-.06-2.996 2.957-2.124 3.305-2.013v-2.957c-.556-.156-1.24-.267-2.105-.267-1.16 0-2.534.326-3.533 1.238-1.133 1.029-1.609 2.67-1.609 4.149v.462h-1.697v2.846h1.697v9.588c0 2.631-1.884 2.254-2.722 2.123l-.423 2.847a5 5 0 0 0 1.696.312c1.797.013 3.071-.52 3.929-1.335 1.073-1.029 1.482-2.508 1.482-3.973l.027-9.555h4.07v9.588c.06 2.774-2.173 2.208-2.722 2.123l-.423 2.846a5 5 0 0 0 1.697.313c1.796.013 3.07-.521 3.928-1.335 1.073-1.03 1.476-2.508 1.476-3.974l.026-9.555h3.259v-2.826h-3.306v-.632c.041-3.029 2.944-2.11 3.292-2.013"/></g><defs><clipPath id="a"><path fill="#fff" d="M52.926 18.061h74.148v23.878H52.926z"/></clipPath></defs></svg>
